static/fa/svgs/regular/chess-pawn.svg

<svg xmlns="http://www.w3.org/2000/svg" viewBox="0 0 320 512"><!--! Font Awesome Free 6.1.1 by @fontawesome - https://fontawesome.com License - https://fontawesome.com/license/free (Icons: CC BY 4.0, Fonts: SIL OFL 1.1, Code: MIT License) Copyright 2022 Fonticons, Inc.--><path d="M296 463.1H23.1c-13.25 0-23.1 10.75-23.1 24s10.75 24 23.1 24h272c13.25 0 23.1-10.75 23.1-23.1s-8.9-24.9-22.2-24.9zm-240.9-176H80v29.5c0 40.25-3.5 81.25-23.38 114.5h53.5c14.98-37 17.88-76.5 17.88-113.6V288h64v29.5c0 37.13 2.875 77.5 17.88 114.5h53.5C243.5 398.7 240 357.7 240 317.5v-30.4h24c13.3 0 24-9.8 24-24 0-13.25-10.75-24-23.1-24H241c23.75-21.88 38.1-53.12 38.1-87.1 0-9.393-1.106-19.05-3.451-28.86C272.3 105.4 244.9 32 159.1 32 93.75 32 40 85.75 40 151.1c0 34.88 15.12 66.12 39 88H55.1c-12.35 0-23.1 11.6-23.1 24 0 14.2 10.75 24 23.1 24zM160 79.1c39.75 0 72 32.25 72 72s-32.2 72-72 72-72-31.4-72-72 32.2-72 72-72z"/></svg>

<svg xmlns="http://www.w3.org/2000/svg" viewBox="0 0 320 512"><!--! Font Awesome Free 6.1.1 by @fontawesome - https://fontawesome.com License - https://fontawesome.com/license/free (Icons: CC BY 4.0, Fonts: SIL OFL 1.1, Code: MIT License) Copyright 2022 Fonticons, Inc. --><path d="M296 463.1H23.1c-13.25 0-23.1 10.75-23.1 24s10.75 24 23.1 24h272c13.25 0 23.1-10.75 23.1-23.1S309.3 463.1 296 463.1zM55.1 287.1L80 287.1v29.5c0 40.25-3.5 81.25-23.38 114.5h53.5C125.1 394.1 128 354.6 128 317.5v-29.5h64v29.5c0 37.13 2.875 77.5 17.88 114.5h53.5C243.5 398.7 240 357.7 240 317.5V287.1l24-.0001C277.3 287.1 288 277.3 288 263.1c0-13.25-10.75-24-23.1-24H241c23.75-21.88 38.1-53.12 38.1-87.1c0-9.393-1.106-19.05-3.451-28.86C272.3 105.4 244.9 32 159.1 32C93.75 32 40 85.75 40 151.1c0 34.88 15.12 66.12 39 88H55.1C42.75 239.1 32 250.7 32 263.1C32 277.3 42.75 287.1 55.1 287.1zM160 79.1c39.75 0 72 32.25 72 72S199.8 223.1 160 223.1S88 191.7 88 151.1S120.2 79.1 160 79.1z"/></svg>
